X:1
T:Kerry Polka
C:Traditionnel, fichier abc : Bernard Loffet
L:1/8
Q:440
M:2/4
K:G
 [B2G,,2] [D2G,2] | [E2D,,2] [D2G,2] | [B2G,,2] [D2G,2] | [E2D,,2] [D2G,2] | [G2G,,2] G,2 | \
 [A2D,,2] D,B | [A2D,,2] [G2G,2] | [E2D,,2] [D2G,2] | [B2G,,2] [D2G,2] | [E2D,,2] [D2G,2] | \
 [B2G,,2] [D2G,2] | [E2D,,2] [D2G,2] | [G2G,,2] G,2 | [A2D,,2] D,B | [A2D,,2] [G2G,2] | \
 [G2G,,2] G,2 | [B2G,,2] [d2G,2] | [B2G,,2] [A2D,2] | [A2D,,2] [G2G,2] | [E2D,,2] [D2G,2] | \
 [G2G,,2] G,2 | [A2D,,2] D,B | [A2D,,2] [G2G,2] | [E2D,,2] [D2G,2] | [B2G,,2] [d2G,2] | \
 [B2G,,2] [A2D,2] | [A2D,,2] [G2G,2] | [E2D,,2] [D2G,2] | [G2G,,2] G,2 | [A2D,,2] D,B | \
 [A2D,,2] [G2G,2] | [G2G,,2] G,2 | \
K:C
Z:Created with TablEdit http://www.tabledit.com/ by Bernard Loffet
